!!!COM: Palestrina, Giovanni Perluigi da
!!!OPR: Missa Veni creator Spiritus
!!!OMD: Kyrie
!!!OTL: Christe
**kern	**kern	**kern	**kern
*Itenor	*Icalto	*Icant	*Icant
!Tenor	!Altus	!Cantus 2	!Cantus 1
*clefGv2	*clefG2	*clefG2	*clefG2
*k[]	*k[]	*k[]	*k[]
*G:mix	*G:mix	*G:mix	*G:mix
*M4/2	*M4/2	*M4/2	*M4/2
=28	=28	=28	=28
1r	0g	0r	0r
[1c	.	.	.
=29	=29	=29	=29
1c]	1a	0r	0r
1d	1b	.	.
=30	=30	=30	=30
1e	2.g	1r	0r
.	4f	.	.
2.c	2e	[1cc	.
.	4a	.	.
4B	4g	.	.
=31	=31	=31	=31
1A	4a	1cc]	0r
.	4b	.	.
.	1cc	.	.
1G	.	1dd	.
.	2b	.	.
=32	=32	=32	=32
2.c	2a	1.ee	0cc
.	4g	.	.
4d	4f	.	.
2e	2g	.	.
[2f	[2a	[2cc	.
=33	=33	=33	=33
2f]	2a]	2cc]	0dd
2g	1g	2b	.
1d	.	1a	.
.	2f	.	.
=34	=34	=34	=34
2.c	2g	1cc	0ee
.	1a	.	.
4d	.	.	.
1e	.	1b	.
.	2g#	.	.
=35	=35	=35	=35
1A	1a	2r	0cc
.	.	2ee	.
2r	1A	2ee	.
2e	.	2ee	.
=36	=36	=36	=36
2e	0r	1gg	0b
2e	.	.	.
1g	.	1dd	.
=37	=37	=37	=37
1d	0r	2.ff	0a
.	.	4ee	.
2.f	.	2dd	.
.	.	2cc	.
4e	.	.	.
=38	=38	=38	=38
2.d	2r	2b-	0dd
.	2d	1a	.
4c	.	.	.
1B-	2d	.	.
.	2d	2g	.
=39	=39	=39	=39
0A	2f	2a	0cc
.	4e	2ee	.
.	4d	.	.
.	2c	2ee	.
.	2e	2ee	.
=40	=40	=40	=40
0r	2e	1gg	0b
.	2e	.	.
.	1g	2dd	.
.	.	[2gg	.
=41	=41	=41	=41
2r	2.c	4gg]	0cc
.	.	4ff	.
2e	.	4ee	.
.	4B	4dd	.
2e	4A	4cc	.
.	4B	4dd	.
2e	4c	[2ee	.
.	4d	.	.
=42	=42	=42	=42
1g	4e	4ee]	0r
.	4f	4dd	.
.	4g	4b	.
.	4e	4cc	.
2d	4f	2dd	.
.	4g	.	.
2f	[2a	4cc	.
.	.	4dd	.
=43	=43	=43	=43
0e	2a]	0ee	0b
.	4g#	.	.
.	4f#	.	.
.	1g#	.	.
=44	=44	=44	=44
2.A	2r	1ee	0cc
.	2a	.	.
4B	.	.	.
1c	2g	2r	.
.	2e	2ee	.
=45	=45	=45	=45
2r	2.f	2cc	0a
2d	.	2a	.
.	4g	.	.
2c	4a	2.cc	.
.	4b	.	.
2A	[2cc	.	.
.	.	4dd	.
=46	=46	=46	=46
4c	2cc]	4ee	0g
4d	.	4ff	.
4e	4b	2gg	.
4f	4a	.	.
2g	2b	2dd	.
2c	4cc	2ee	.
.	4b	.	.
=47	=47	=47	=47
2.d	4a	2dd	0f
.	4g	.	.
.	4f	2.ff	.
4c	4e	.	.
1B-	4d	.	.
.	4c	4ee	.
.	2d	[2dd	.
=48	=48	=48	=48
1A	1e	2dd]	0a
.	.	2cc#	.
2r	1d	2dd	.
2d	.	2ff	.
=49	=49	=49	=49
2c	2r	2ee	0cc
2A	2f	2cc	.
4c	2e	[1ee	.
4d	.	.	.
4e	2c	.	.
4f	.	.	.
=50	=50	=50	=50
1g	2.e	1ee]	0b
.	4f	.	.
1G	2g	2dd	.
.	2d	2dd	.
=51	=51	=51	=51
2r	1f	2cc	0a
2d	.	2a	.
2c	2e	2.cc	.
2A	2f	.	.
.	.	4dd	.
=52	=52	=52	=52
4c	2e	4ee	[0g
4d	.	4ff	.
4e	2c	2.gg	.
4f	.	.	.
2g	2.e	.	.
.	.	4ff	.
2c	.	2ee	.
.	4f	.	.
=53	=53	=53	=53
2B	4g	2dd	1g_
.	4f	.	.
2c	4e	1cc	.
.	8d	.	.
.	8c	.	.
1G	1d	.	1g_
.	.	2b	.
=54	=54	=54	=54
0c	0e	0cc	0g]
==	==	==	==
*-	*-	*-	*-
!!!CDT: 1525/^1526/-1594/2/2
!!!OCY: Italia
!!!AGN: Mass (Tenor)
!!!AST: renaissance, vocal
!!!ASW: Hymn
!!!PWK: Masses, Book 9
!!!RNB: Cadence finals: C,D
!!!YOR: Le Opere Complete, v. 25, p. 246
!!!YOO: Rome, Italy: Fratelli Scalera
!!!END: 1992//
!!!EED: John Miller
!!!YEC: Copyright 2000, John Miller
!!!YEN: United States of America
!!!YEM: Rights to all derivative electronic formats reserved.
!!!YEM: Refer to licensing agreement for further details.
!!!YEM: This file must be accompanied by the licensing agreement.
!!!YEM: A copy of the licensing agreement may be found at http://www.music-cog.ohio-state.edu/HumdrumDatabases/Palestrina/license.txt
!!!EMD: converted to Humdrum by Bret Aarden
